X:76
T: WENN DU WILLST MEIN SCHAETZCHEN BLEIBEN
N: E1094
O: Europa, Mitteleuropa, Deutschland, Rheinland, Bonn
R: Wunsch - Lied, Luegen - Maerchen
M: 2/4
L: 1/16
K: C
 | C3DE2C2 | D2B,2G,4 |
A,3B,C2A,2 | G,2F,2E,2z2 |
F,3A,G,2E,2 | F,2A,2G,4 |
C3DE2C2 | B,2D2C2z2

@@@ Tune index: 4760
